icons/code.svg

<svg fill="none" height="12" viewBox="0 0 12 12" width="12" xmlns="http://www.w3.org/2000/svg" xmlns:xlink="http://www.w3.org/1999/xlink"><linearGradient id="a" gradientUnits="userSpaceOnUse" x1="6" x2="6" y1="0" y2="12"><stop offset="0" stop-color="#007acc"/><stop offset="1" stop-color="#007acc"/></linearGradient><rect fill="url(#a)" height="12" rx="2.5" width="12"/><path d="m9.71689 2.86369-1.64836-.79365c-.1908-.09187-.41881-.05312-.56855.09662l-5.39611 4.91999c-.14515.13233-.14498.36084.00036.49296l.44077.4007c.11881.10802.29776.11597.42568.01893l6.49817-4.92965c.21801-.16539.53113-.0099.53113.26374v-.01913c0-.19208-.11003-.36718-.28309-.45051z" fill="#a4a4a4"/><path d="m8.06862 9.93011c-.19085.09179-.41887.05298-.56862-.09677.18451.18446.5.05383.5-.20711v-7.25245c0-.26094-.31549-.39162-.5-.20711.14975-.14975.37777-.18855.56862-.09677l1.64808.79257c.17317.08328.2833.25844.2833.4506v5.37391c0 .19216-.11013.36732-.28331.4506z" fill="#fff"/><path d="m9.71689 9.13633-1.64836.79365c-.1908.09192-.41881.05311-.56855-.09662l-5.39611-4.91999c-.14515-.13233-.14498-.36084.00036-.49296l.44077-.40071c.11881-.10801.29776-.11597.42568-.01892l6.49817 4.92965c.21801.16538.53113.0099.53113-.26374v.01914c0 .19207-.11003.36717-.28309.4505z" fill="#cecece"/></svg>

<svg width="12" height="12" viewBox="0 0 12 12" fill="none" xmlns="http://www.w3.org/2000/svg">
<rect width="12" height="12" rx="2" fill="url(#paint0_linear_211_256)"/>
<g clip-path="url(#clip0_211_256)">
<mask id="mask0_211_256" style="mask-type:alpha" maskUnits="userSpaceOnUse" x="2" y="2" width="8" height="8">
<path fill-rule="evenodd" clip-rule="evenodd" d="M7.67295 9.94537C7.79895 9.99446 7.94262 9.99131 8.0698 9.93011L9.71686 9.13758C9.88994 9.0543 10 8.87914 10 8.68698V3.31306C10 3.1209 9.88994 2.94574 9.71687 2.86246L8.0698 2.0699C7.9029 1.98959 7.70757 2.00926 7.56108 2.11576C7.54016 2.13097 7.52022 2.14795 7.50152 2.16667L4.34841 5.04332L2.97498 4.00077C2.84712 3.90372 2.66829 3.91167 2.54955 4.01969L2.10904 4.42039C1.9638 4.55251 1.96363 4.78102 2.10868 4.91336L3.29977 6.00001L2.10868 7.08666C1.96363 7.21899 1.9638 7.4475 2.10904 7.57962L2.54955 7.98033C2.66829 8.08834 2.84712 8.0963 2.97498 7.99924L4.34841 6.9567L7.50152 9.83334C7.5514 9.88325 7.60997 9.92083 7.67295 9.94537ZM8.00122 4.18391L5.60873 6.00001L8.00122 7.8161V4.18391Z" fill="white"/>
</mask>
<g mask="url(#mask0_211_256)">
<path d="M9.71689 2.86369L8.06853 2.07004C7.87773 1.97817 7.64972 2.01692 7.49998 2.16666L2.10387 7.08665C1.95872 7.21898 1.95889 7.44749 2.10423 7.57961L2.545 7.98031C2.66381 8.08833 2.84276 8.09628 2.97068 7.99924L9.46885 3.06959C9.68686 2.9042 9.99998 3.05969 9.99998 3.33333V3.3142C9.99998 3.12212 9.88995 2.94702 9.71689 2.86369Z" fill="#A4A4A4"/>
<g filter="url(#filter0_d_211_256)">
<path d="M9.71689 9.1363L8.06853 9.92995C7.87773 10.0218 7.64972 9.98306 7.49998 9.83333L2.10387 4.91334C1.95872 4.78101 1.95889 4.5525 2.10423 4.42038L2.545 4.01967C2.66381 3.91166 2.84276 3.9037 2.97068 4.00075L9.46885 8.9304C9.68686 9.09578 9.99998 8.9403 9.99998 8.66666V8.6858C9.99998 8.87787 9.88995 9.05297 9.71689 9.1363Z" fill="#CECECE"/>
</g>
<g filter="url(#filter1_d_211_256)">
<path d="M8.06862 9.9301C7.87777 10.0219 7.64975 9.98307 7.5 9.83332C7.68451 10.0178 8 9.88715 8 9.62622V2.37376C8 2.11283 7.68451 1.98215 7.5 2.16666C7.64975 2.01691 7.87777 1.9781 8.06862 2.06989L9.7167 2.86245C9.88987 2.94573 10 3.12089 10 3.31305V8.68696C10 8.87912 9.88987 9.05428 9.71669 9.13756L8.06862 9.9301Z" fill="white"/>
</g>
<g style="mix-blend-mode:overlay" opacity="0.25">
<path fill-rule="evenodd" clip-rule="evenodd" d="M7.66807 9.94542C7.79407 9.9945 7.93775 9.99135 8.06492 9.93016L9.71198 9.13763C9.88505 9.05435 9.99512 8.87919 9.99512 8.68702V3.31311C9.99512 3.12095 9.88506 2.94579 9.71199 2.86251L8.06492 2.06995C7.89802 1.98964 7.70268 2.00931 7.5562 2.1158C7.53528 2.13101 7.51534 2.148 7.49664 2.16672L4.34352 5.04336L2.97009 4.00082C2.84224 3.90376 2.66341 3.91172 2.54466 4.01973L2.10416 4.42043C1.95891 4.55256 1.95875 4.78107 2.1038 4.9134L3.29488 6.00005L2.1038 7.08671C1.95875 7.21904 1.95891 7.44755 2.10416 7.57967L2.54466 7.98037C2.66341 8.08839 2.84224 8.09634 2.97009 7.99929L4.34352 6.95674L7.49664 9.83339C7.54652 9.88329 7.60508 9.92088 7.66807 9.94542ZM7.99633 4.18396L5.60384 6.00005L7.99633 7.81615V4.18396Z" fill="url(#paint1_linear_211_256)"/>
</g>
</g>
</g>
<defs>
<filter id="filter0_d_211_256" x="1.32845" y="3.26632" width="9.33822" height="7.37966" filterUnits="userSpaceOnUse" color-interpolation-filters="sRGB">
<feFlood flood-opacity="0" result="BackgroundImageFix"/>
<feColorMatrix in="SourceAlpha" type="matrix" values="0 0 0 0 0 0 0 0 0 0 0 0 0 0 0 0 0 0 127 0" result="hardAlpha"/>
<feOffset/>
<feGaussianBlur stdDeviation="0.333334"/>
<feColorMatrix type="matrix" values="0 0 0 0 0 0 0 0 0 0 0 0 0 0 0 0 0 0 0.25 0"/>
<feBlend mode="overlay" in2="BackgroundImageFix" result="effect1_dropShadow_211_256"/>
<feBlend mode="normal" in="SourceGraphic" in2="effect1_dropShadow_211_256" result="shape"/>
</filter>
<filter id="filter1_d_211_256" x="6.83333" y="1.35395" width="3.83333" height="9.29211" filterUnits="userSpaceOnUse" color-interpolation-filters="sRGB">
<feFlood flood-opacity="0" result="BackgroundImageFix"/>
<feColorMatrix in="SourceAlpha" type="matrix" values="0 0 0 0 0 0 0 0 0 0 0 0 0 0 0 0 0 0 127 0" result="hardAlpha"/>
<feOffset/>
<feGaussianBlur stdDeviation="0.333334"/>
<feColorMatrix type="matrix" values="0 0 0 0 0 0 0 0 0 0 0 0 0 0 0 0 0 0 0.25 0"/>
<feBlend mode="overlay" in2="BackgroundImageFix" result="effect1_dropShadow_211_256"/>
<feBlend mode="normal" in="SourceGraphic" in2="effect1_dropShadow_211_256" result="shape"/>
</filter>
<linearGradient id="paint0_linear_211_256" x1="6" y1="0" x2="6" y2="12" gradientUnits="userSpaceOnUse">
<stop stop-color="#007ACC"/>
<stop offset="1" stop-color="#007ACC"/>
</linearGradient>
<linearGradient id="paint1_linear_211_256" x1="5.99512" y1="2.02068" x2="5.99512" y2="9.97943" gradientUnits="userSpaceOnUse">
<stop stop-color="white"/>
<stop offset="1" stop-color="white" stop-opacity="0"/>
</linearGradient>
<clipPath id="clip0_211_256">
<rect width="8" height="8" fill="white" transform="translate(2 2)"/>
</clipPath>
</defs>
</svg>
